static/svg/index/house-chimney-solid.svg

<svg xmlns="http://www.w3.org/2000/svg" viewBox="0 0 640 640"><path d="M298.2 72.6c12.3-11.4 31.3-11.4 43.5 0l90.3 83.7V144c0-17.7 14.3-32 32-32h32c17.7 0 32 14.3 32 32v101.5l37.8 35.1c9.6 9 12.8 22.9 8 35.1S557.2 336 544 336h-16v176c0 35.3-28.7 64-64 64H176c-35.3 0-64-28.7-64-64V336H96c-13.2 0-25-8.1-29.8-20.3s-1.6-26.2 8-35.1zM304 384c-26.5 0-48 21.5-48 48v96h128v-96c0-26.5-21.5-48-48-48z" fill="#bbb"/></svg>

<svg xmlns="http://www.w3.org/2000/svg" viewBox="0 0 640 640"><path d="M298.2 72.6C310.5 61.2 329.5 61.2 341.7 72.6L432 156.3L432 144C432 126.3 446.3 112 464 112L496 112C513.7 112 528 126.3 528 144L528 245.5L565.8 280.6C575.4 289.6 578.6 303.5 573.8 315.7C569 327.9 557.2 336 544 336L528 336L528 512C528 547.3 499.3 576 464 576L176 576C140.7 576 112 547.3 112 512L112 336L96 336C82.8 336 71 327.9 66.2 315.7C61.4 303.5 64.6 289.5 74.2 280.6L298.2 72.6zM304 384C277.5 384 256 405.5 256 432L256 528L384 528L384 432C384 405.5 362.5 384 336 384L304 384z"/></svg>
